book/part1/images/intro-to-groups/circular-crossings.svg

<?xml version="1.0" encoding="UTF-8" standalone="no"?>
<svg
   width="600"
   height="600"
   viewBox="0 0 600 600"
   version="1.1"
   id="svg1"
   sodipodi:docname="circular-crossings.svg"
   inkscape:export-filename="circular-crossings.pdf"
   inkscape:export-xdpi="96"
   inkscape:export-ydpi="96"
   inkscape:version="1.3.2 (091e20e, 2023-11-25, custom)"
   xmlns:inkscape="http://www.inkscape.org/namespaces/inkscape"
   xmlns:sodipodi="http://sodipodi.sourceforge.net/DTD/sodipodi-0.dtd"
   xmlns:xlink="http://www.w3.org/1999/xlink"
   xmlns="http://www.w3.org/2000/svg"
   xmlns:svg="http://www.w3.org/2000/svg">
  <sodipodi:namedview
     id="namedview3"
     pagecolor="#ffffff"
     bordercolor="#000000"
     borderopacity="0.25"
     inkscape:showpageshadow="2"
     inkscape:pageopacity="0.0"
     inkscape:pagecheckerboard="0"
     inkscape:deskcolor="#505050"
     inkscape:zoom="1.2951839"
     inkscape:cx="195.33905"
     inkscape:cy="280.65512"
     inkscape:window-width="2560"
     inkscape:window-height="1334"
     inkscape:window-x="-11"
     inkscape:window-y="-11"
     inkscape:window-maximized="1"
     inkscape:current-layer="g3" />
  <defs
     id="defs1">
    <path
       id="Main"
       d="M-217.995,35 C-217.995,25.7175,-214.307,16.8149,-207.744,10.2512 L-172.744,-24.7485 C-166.18,-31.3123,-157.277,-35,-147.995,-35 C-138.712,-35,-129.81,-31.3123,-123.246,-24.7485 L-73.7485,24.7485 C-67.1848,31.3123,-58.2825,35,-49,35 H49 C58.2825,35,67.1848,31.3123,73.7485,24.7485 L123.246,-24.7485 C129.81,-31.3123,138.712,-35,147.995,-35 C157.277,-35,166.18,-31.3123,172.744,-24.7485 L207.744,10.2512 C214.307,16.8149,217.995,25.7175,217.995,35 C217.995,136.065,136.065,217.995,35,217.995 C25.7175,217.995,16.8149,214.307,10.2512,207.744 L-24.7485,172.744 C-31.3123,166.18,-35,157.277,-35,147.995 C-35,138.712,-31.3123,129.81,-24.7485,123.246 L24.7485,73.7485 C31.3123,67.1848,35,58.2825,35,49 V-49 C35,-58.2825,31.3123,-67.1848,24.7485,-73.7485 L-24.7485,-123.246 C-31.3123,-129.81,-35,-138.712,-35,-147.995 C-35,-157.277,-31.3123,-166.18,-24.7485,-172.744 L10.2512,-207.744 C16.8149,-214.307,25.7175,-217.995,35,-217.995 C136.065,-217.995,217.995,-136.065,217.995,-35 C217.995,-25.7175,214.307,-16.8149,207.744,-10.2512 L172.744,24.7485 C166.18,31.3123,157.277,35,147.995,35 C138.712,35,129.81,31.3123,123.246,24.7485 L73.7485,-24.7485 C67.1848,-31.3123,58.2825,-35,49,-35 H-49 C-58.2825,-35,-67.1848,-31.3123,-73.7485,-24.7485 L-123.246,24.7485 C-129.81,31.3123,-138.712,35,-147.995,35 C-157.277,35,-166.18,31.3123,-172.744,24.7485 L-207.744,-10.2512 C-214.307,-16.8149,-217.995,-25.7175,-217.995,-35 C-217.995,-136.065,-136.065,-217.995,-35,-217.995 C-25.7175,-217.995,-16.8149,-214.307,-10.2512,-207.744 L24.7485,-172.744 C31.3123,-166.18,35,-157.277,35,-147.995 C35,-138.712,31.3123,-129.81,24.7485,-123.246 L-24.7485,-73.7485 C-31.3123,-67.1848,-35,-58.2825,-35,-49 V49 C-35,58.2825,-31.3123,67.1848,-24.7485,73.7485 L24.7485,123.246 C31.3123,129.81,35,138.712,35,147.995 C35,157.277,31.3123,166.18,24.7485,172.744 L-10.2512,207.744 C-16.8149,214.307,-25.7175,217.995,-35,217.995 C-136.065,217.995,-217.995,136.065,-217.995,35Z" />
  </defs>
  <g
     transform="matrix(1.26,0,0,-1.26,300,300)"
     stroke-width="28"
     stroke="#000000"
     fill="none"
     id="g3"
     inkscape:groupmode="layer"
     inkscape:label="Main">
    <g
       id="g2"
       inkscape:label="diagram"
       style="display:inline">
      <use
         xlink:href="#Main"
         stroke-width="28"
         stroke="#000000"
         id="use1"
         style="display:inline;stroke-width:28;stroke-dasharray:none;stroke:#ffffff;stroke-opacity:1"
         inkscape:label="main-outline" />
      <use
         xlink:href="#Main"
         stroke-width="12.5"
         stroke="#ebf5ff"
         id="use2"
         style="display:inline;stroke:#000000;stroke-opacity:1"
         inkscape:label="main-body" />
    </g>
    <g
       id="g1"
       inkscape:label="crossings"
       style="display:inline">
      <path
         stroke-width="28"
         stroke="#000000"
         d="M -24,35 H -46 M 8,106.497 -8,90.4973 m 16,114.9947 -16,-16 M -35,-24 v -22 m -71.497,54 15.9997,-16 m -114.9947,16 16,-16 M 24,-35 h 22 m -54,-71.497 16,15.9997 m -16,-114.9947 16,16 M 35,24 V 46 M 106.497,-8 90.4973,8 m 114.9947,-16 -16,16"
         id="path2"
         style="display:inline;stroke:#fdfdfd;stroke-opacity:1"
         inkscape:label="overlap-outline" />
      <path
         stroke-width="12.5"
         stroke="#ffffff"
         d="M -23,35 H -47 M 9,107.497 -9,89.4973 m 18,116.9947 -18,-18 M -35,-23 v -24 m -72.497,56 17.9997,-18 m -116.9947,18 18,-18 M 23,-35 h 24 m -56,-72.497 18,17.9997 m -18,-116.9947 18,18 M 35,23 V 47 M 107.497,-9 89.4973,9 m 116.9947,-18 -18,18"
         id="path3"
         style="display:inline;stroke:#000000;stroke-opacity:1"
         inkscape:label="overlap-body" />
    </g>
  </g>
</svg>

<?xml version="1.0" encoding="UTF-8" standalone="no"?>
<svg
   width="600"
   height="600"
   viewBox="0 0 600 600"
   version="1.1"
   id="svg3"
   sodipodi:docname="circular-crossings.svg"
   inkscape:export-filename="circular-crossings.pdf"
   inkscape:export-xdpi="96"
   inkscape:export-ydpi="96"
   inkscape:version="1.3.2 (091e20e, 2023-11-25, custom)"
   xmlns:inkscape="http://www.inkscape.org/namespaces/inkscape"
   xmlns:sodipodi="http://sodipodi.sourceforge.net/DTD/sodipodi-0.dtd"
   xmlns:xlink="http://www.w3.org/1999/xlink"
   xmlns="http://www.w3.org/2000/svg"
   xmlns:svg="http://www.w3.org/2000/svg">
  <sodipodi:namedview
     id="namedview3"
     pagecolor="#ffffff"
     bordercolor="#000000"
     borderopacity="0.25"
     inkscape:showpageshadow="2"
     inkscape:pageopacity="0.0"
     inkscape:pagecheckerboard="0"
     inkscape:deskcolor="#d1d1d1"
     inkscape:zoom="1.8316667"
     inkscape:cx="299.72702"
     inkscape:cy="256.32393"
     inkscape:window-width="2560"
     inkscape:window-height="1334"
     inkscape:window-x="-11"
     inkscape:window-y="-11"
     inkscape:window-maximized="1"
     inkscape:current-layer="svg3" />
  <title
     id="title1">Twelve-crossing decorative knot with four-fold symmetry.</title>
  <defs
     id="defs1">
    <path
       id="Main"
       d="M-217.995,35 C-217.995,25.7175,-214.307,16.8149,-207.744,10.2512 L-172.744,-24.7485 C-166.18,-31.3123,-157.277,-35,-147.995,-35 C-138.712,-35,-129.81,-31.3123,-123.246,-24.7485 L-73.7485,24.7485 C-67.1848,31.3123,-58.2825,35,-49,35 H49 C58.2825,35,67.1848,31.3123,73.7485,24.7485 L123.246,-24.7485 C129.81,-31.3123,138.712,-35,147.995,-35 C157.277,-35,166.18,-31.3123,172.744,-24.7485 L207.744,10.2512 C214.307,16.8149,217.995,25.7175,217.995,35 C217.995,136.065,136.065,217.995,35,217.995 C25.7175,217.995,16.8149,214.307,10.2512,207.744 L-24.7485,172.744 C-31.3123,166.18,-35,157.277,-35,147.995 C-35,138.712,-31.3123,129.81,-24.7485,123.246 L24.7485,73.7485 C31.3123,67.1848,35,58.2825,35,49 V-49 C35,-58.2825,31.3123,-67.1848,24.7485,-73.7485 L-24.7485,-123.246 C-31.3123,-129.81,-35,-138.712,-35,-147.995 C-35,-157.277,-31.3123,-166.18,-24.7485,-172.744 L10.2512,-207.744 C16.8149,-214.307,25.7175,-217.995,35,-217.995 C136.065,-217.995,217.995,-136.065,217.995,-35 C217.995,-25.7175,214.307,-16.8149,207.744,-10.2512 L172.744,24.7485 C166.18,31.3123,157.277,35,147.995,35 C138.712,35,129.81,31.3123,123.246,24.7485 L73.7485,-24.7485 C67.1848,-31.3123,58.2825,-35,49,-35 H-49 C-58.2825,-35,-67.1848,-31.3123,-73.7485,-24.7485 L-123.246,24.7485 C-129.81,31.3123,-138.712,35,-147.995,35 C-157.277,35,-166.18,31.3123,-172.744,24.7485 L-207.744,-10.2512 C-214.307,-16.8149,-217.995,-25.7175,-217.995,-35 C-217.995,-136.065,-136.065,-217.995,-35,-217.995 C-25.7175,-217.995,-16.8149,-214.307,-10.2512,-207.744 L24.7485,-172.744 C31.3123,-166.18,35,-157.277,35,-147.995 C35,-138.712,31.3123,-129.81,24.7485,-123.246 L-24.7485,-73.7485 C-31.3123,-67.1848,-35,-58.2825,-35,-49 V49 C-35,58.2825,-31.3123,67.1848,-24.7485,73.7485 L24.7485,123.246 C31.3123,129.81,35,138.712,35,147.995 C35,157.277,31.3123,166.18,24.7485,172.744 L-10.2512,207.744 C-16.8149,214.307,-25.7175,217.995,-35,217.995 C-136.065,217.995,-217.995,136.065,-217.995,35Z" />
  </defs>
  <g
     transform="translate(300,300) scale(1.26,-1.26)"
     stroke-width="28"
     stroke="rgb(0,0,0)"
     fill="none"
     id="g3">
    <use
       xlink:href="#Main"
       id="use1" />
    <use
       xlink:href="#Main"
       stroke-width="12.5"
       stroke="rgb(235,245,255)"
       id="use2" />
    <path
       d="M-24,35 H-46 M8,106.497 L-8,90.4973 M8,205.492 L-8,189.492 M-35,-24 V-46 M-106.497,8 L-90.4973,-8 M-205.492,8 L-189.492,-8 M24,-35 H46 M-8,-106.497 L8,-90.4973 M-8,-205.492 L8,-189.492 M35,24 V46 M106.497,-8 L90.4973,8 M205.492,-8 L189.492,8"
       id="path2" />
    <path
       stroke-width="12.5"
       stroke="rgb(235,245,255)"
       d="M-23,35 H-47 M9,107.497 L-9,89.4973 M9,206.492 L-9,188.492 M-35,-23 V-47 M-107.497,9 L-89.4973,-9 M-206.492,9 L-188.492,-9 M23,-35 H47 M-9,-107.497 L9,-89.4973 M-9,-206.492 L9,-188.492 M35,23 V47 M107.497,-9 L89.4973,9 M206.492,-9 L188.492,9"
       id="path3" />
  </g>
</svg>
